!!!!SEGMENT: pl-kk--kk-i-315--004_palestrina-giovanni-pierluigi-da--vineam-meam.krn
!!!cenid: 16xx:1100
!!!COM: Palestrina, Giovanni Pierluigi da
!!!COM-rismID: pe1904
!!!CDT: ~1525-1594/02/02
!!!CNT: Italian
!!!OTL: Vineam meam
!!!PDT:
!!!AGN: Sacred
!!!SMS-siglum: PL-Kk
!!!SMS-shelfmark: Kk.I.315
!!!SMS-shelfwork: 004 W
!!!SMS-variant:
!!!SMS-altvar:
!!!NIFC-rismSourceID: 1001146222
!!!NIFC-islandoraID: pl-kk:5289
!!!URL-pdf-islandora: https://repozytorium.nifc.pl/islandora/object/pl-kk%3A5289/datastream/PDF/view
!!!URL-scan: https://polish.musicsources.pl/pl/lokalizacje/galeria/rekopisy/5934 @EN{Scan on Polish Music Herritage in Open Access Website} @PL{Skany w portalu Dziedzictwo Muzyki Polskiej w otwartym dostępie}
!!!ONB-nifc: UWAGA: motety w zbiorze: 1. Osculetur me, 2. Trahe me post curremus, 3. Nigra sum sed formosa, 4. Vineam meam, 5. Si ignoras te o pulchra, 6. Pulchrae sunt genae tuae, 7. Fasciculus myrrhae, 8. Ecce tu pulcher es, 9. Tota pulchra es amica mea, 10. Vulnerasti cor meum, 11. Sicut lilium inter spinas, 12. Introduxit me rex, 13. Laeva ejus, 14. Vox dilecti mei
!!!AIN: 1 alto
!!!key:
**kern	**text
*Ialto	*
*I"Alto	*
*I'A	*
*clefC2	*
*k[b-]	*
*d:	*
*M2/1	*
*met(C|)	*
=1-	=1-
!LO:TX:t=P:problem=znaki B- b-	!
1r	.
1a	4 Vi-
=2-	=2-
2a\	-ne-
2a\	-am
1g	me-
=3-	=3-
!!LO:TX:t=P:problem:rozdzielacz słów:global	!	!
2f,<\	-am
2d/	non
2e/	cus-
2f\	-to-
=4-	=4-
1g	-di-
2f,<\	-vi
2d/	non
=5-	=5-
(2.e/	cu-
*custos:g	*
4f\)	.
!LO:LB:g=original	!
4g\	.
4a\	.
2b-\	-sto-
=6-	=6-
2a\	.
1g	.
2f\	.
=7-	=7-
2.e/	-di-
4d/	.
2e/	.
2f\	.
=8-	=8-
1g	-vi
00r	.
=9-	=9-
.	.
=10-	=10-
.	.
1g	vi-
=11-	=11-
2g\	-ne-
2g\	-am
1f	me-
=12-	=12-
2e,</	-am
*custos:d	*
!LO:TX:t=P:problem=kreska pseudotaktowa	!
2c/	non
!LO:PB:g=original	!
2d/	cus-
2e/	-to-
=13-	=13-
2.f\	-di-
8e/	.
8d/	.
1e	.
=14-	=14-
2f,<\	-vi
2.a\	in-
4a\	-di-
2a\	-ca
=15-	=15-
1b-	mi-
4a\	.
4g\	.
4a\	.
4b-\	.
=16-	=16-
2cc,<\	-hi
!LO:SIC:v:l:s=quem	!
2b-\	qvem
2.a\	di-
4g\	-li-
!LO:LB:g=original	!
=17-	=17-
2a,<\	-git
2.b-\	a-
4b-\	-ni-
2.a\	-ma
=18-	=18-
.	.
4g\	.
(1g	me-
2f\)	.
=19-	=19-
1g	-a
1r	.
=20-	=20-
2.b-\	in-
4b-\	-di-
2g,<\	-ca
1a\	mi-
=21-	=21-
.	.
2a\	-hi
!LO:SIC:v:l:s=quem	!
2a,<\	qve(m)
2.a\	di-
=22-	=22-
.	.
4g\	-li-
!LO:LB:g=original	!
2a,<\	-git
2.b-\	a-
4a\	-ni-
=23-	=23-
2a,<\	-ma
4g\	Me-
4f\	.
4e/	.
4d/	.
1e/	.
=24-	=24-
.	.
2f,<\	-a
1a	u-
=25-	=25-
2b-\	-bi
1cc	pas-
2a,<\	-cas
=26-	=26-
1b-	u-
2a\	-bi
1g\	cu-
=27-	=27-
.	.
!LO:LB:g=original	!
2f,<\	-bas
1e-X	in
=28-	=28-
2d/	me-
2.c/	-ri-
4c/	-di-
1d,</	-e
=29-	=29-
.	.
2a\	u-
2b-\	-bi
1cc\	pas-
=30-	=30-
.	.
2b-,<\	-cas
1a	u-
=31-	=31-
2a\	-bi
1b-	cu-
!LO:LB:g=original	!
2a,<\	-bas
=32-	=32-
2.g\	in
4g\	me-
1f	-ri-
=33-	=33-
2eny/	-di-
0f	-e
=34-	=34-
.	.
2rd	.
2e/	ne
2e/	va-
=35-	=35-
4c/	-ga-
4d/	.
4e\	.
4f\	.
4g\	.
4a\	.
1b-\	.
=36-	=36-
.	.
2b-\	.
4a\	.
4g\	.
!LO:LB:g=original	!
2a,<\	ri
=37-	=37-
2b-\	in-
4cc\	-ci-
4b-\	.
4a\	.
4g\	.
2f\	.
=38-	=38-
2g\	-pi-
1a	-am
2r	.
=39-	=39-
2f\	ne
2f\	va-
4d/	-ga-
4e/	.
4f\	.
4g\	.
=40-	=40-
4a\	.
4b-\	.
1cc	.
1.a\	-ri
=41-	=41-
.	.
2g\	in-
!LO:LB:g=original	!
1.cc\	-ci-
=42-	=42-
.	.
2a\	-pi-
2a,<\	-am
=43-	=43-
1a	in-
1g	-ci-
=44-	=44-
2f#X\	-pi-
2g,<\	-am
2g\	post
1g\	gre-
=45-	=45-
.	.
1.b-,<	-ges
=46-	=46-
2b-\	so-
2cc\	-da-
2cc\	-li-
1cc,<\	-u(m)
=47-	=47-
.	.
2b-\	tu-
!LO:LB:g=original	!
1a	-o-
=48-	=48-
2f,<\	-ru(m)
1g	so-
1a\	-da-
=49-	=49-
.	.
2f\	-li-
2d,</	-um
2e/	tu-
=50-	=50-
4f\	-o-
4e/	.
2.d/	.
4c#X/	.
2c#/	.
=51-	=51-
1d	-rum
2rd	.
2d/	post
=52-	=52-
*custos:f#	*
1e	gre-
!LO:LB:g=original	!
2f#X,<\	-ges
2f#\	so-
=53-	=53-
2.g\	-da-
4g\	-li-
2g,<\	-um
2a\	tu-
=54-	=54-
2.g\	-o-
4fny\	.
*lig	*
1e	.
=55-	=55-
1d	.
*Xlig	*
0d	-rum
==	==
*-	*-
!!!RDF**kern: < = below
!!!ENC: Marta Lawrence
!!!END: 2021-03-28
!!!ENC: Kamil Watkowski
!!!END: 2021-03-18
